X: 375
T: Bir Görüşte Düştü Gönlüm
C: Abdülhalim Ağa
O: Turkey
F: http://compmusic.upf.edu/node/140
N: sivenuma--beste--devrirevan--bir_goruste--abdulhalim_aga
N: makam= sivenuma
N: form= beste
N: usul= devrirevan = 14/8
M: 14/8
L: 1/16
K: C _1/4B _7/8d  
Q: 1/4=120
%%MIDI tuningsystem comma53
c4 _3/4d2ef e2de d2cd c2B2 c2cB A2z2  | \
w:  Bir  gö rüş *  *  te  *  *  düş *  *  tü  gön *  *  lüm   | 
c4 _3/4d2ef e2f2 g2_7/8ag f2e2 f6z2  | 
w:  sen  gi bi  *  *  meh *  pâ *  *  re ye    | 
=d4 e2f2 fed4d4a2 g2_b2 a2f2  | e2f2 a2g2 f2e2 g2f2 e2=d^c d6z2  | 
w:  Söy le mez  *  *  hâ muş  gi bî  *  in  |  sâf  *  e dip  *  â *  vâ *  re *  ye    | 
c4 c2_3/4d3c_B2 A2G2 A2_1/4B2 c6z2  | \
w:  Ten ne  nen  *  ni  *  te  ne  ni  yâr   | 
c4 c2_3/4d3c_B2 A2G2 F2G2 A6z2  | 
w:  te  ne  nen  *  ni  *  te  ne  ni  dost    | 
A4 _B2c4=d4cd c2B2 A2{B}AG F2z2  | \
w:  Söy le mez  hâ muş  *  *  gi bî  *  *  *  in  | 
A2G2 _B2A2 G2F2 E2=DE F2ED D6z2  | 
w:  sâf  *  e dip  *  â *  vâ *  *  re *  ye    | 
g4 a2a4a2 _b2c'=d' c'2b2 a4 b2z2  | \
w:  Bun ca  dem dir  *  a *  *  cı maz sın   | 
a4 _b2ab agf4g2 f2g2 a6z2  | 
w:  ben  ku lun  *  *  *  bî çâ *  re ye    | 
g4 g2_7/8a3gf4g2 a2ag gffe e_3/4ddc  | \
w:  Gel  ke rem  *  kıl  naz *  lı  *  yâ *  *  *  rim   | 
c4 _3/4d2d3cc3BAB A2B2 c6z2  | 
w:  â şık_ ı  *  üf *  tâ *  *  de ye    | 
c4 c2_3/4d3c_B2 A2G2 A2B2 c6z2  | \
w:  Ten ne  nen  *  ni  *  te  ne  ni  yâr   | 
c4 c2_3/4d3c_B2 A2G2 F2G2 A6z2  | 
w:  ten  ne  nen  *  ni  *  te  ne  ni  dost    | 
A4 _B2c4=d4cd c2B2 A2{B}AG F2z2  | \
w:  Gel  ke rem  kıl  naz *  *  lı  yâ *  *  *  rim   | 
A2G2 _B2A2 G2F2 E2=DE F2ED D6z2  | 
w:  â *  şık_ ı  *  üf *  tâ *  *  de *  ye    | 
|


